X: 1
T:Anne's Favorite
S:irtrad-l, 8/94
C:traditional ()
R:hornpipe
Z: Transcribed by Charles Jones
Z: as heard on Thistle and Shamrock, played as theme music
Z:default note length
L:1/16
E:9
I:speed 600
M:4/4
K:D
(3A,B,C|D2 FD EFGE|ABce dBAG|F2 AF GECE|DFEC A,B, (3CB,A,|
D2 FD EF (3GGE|ABce dBAG|FDFA GEA,C|[1EDDC DD (3A,B,C:|[2 ED DC DD (3EFA||
|:d2 de dcAc|dAfA ecAB|(3ccc cd ecdB|cABG AGEC|
D2 FD EF (3GGE|ABce dBAG|FDFA GEA,C|[1EDDC DD (3EFA:|[2EDDC DD||
